X: 1
T: Wind The Bobbins Up
M: 3/4
L: 1/8
R: waltz
K: Dmaj
|:a2 af df|a2 af df|g2 ge ce|d2 fd A2|
a2 af df|a2 af df|g2 ge ce|d2 d2 z2:|
|:A2 B2 c2|d2 e2 f2|g2 gf e2|f2 fe d2|
A2 B2 c2|d2 e2 f2|g2 ge ce|d2 d2 z2:|
